X:1
T:Title
%%score { ( 1 3 ) | ( 2 4 ) }
L:1/8
M:4/4
K:Bb
V:1 treble nm="Grand Piano"
V:3 treble 
V:2 bass 
V:4 bass 
V:1
 z4 z2[Q:1/4=100] F>F | B2 F2 G2 D2 | E3 D C2 [A,CF]>[A,CF] | [B,FB]2 [B,EB]2 [B,DFB]2 [CFAc]2 | %4
 [DFBd]6[K:bass][K:treble] [DF]2 | [CFc]2 [CFc]2 [DFB]2 AG | A3 B [CFc]2 F>F | %7
 [DFG]2 [DFA]2 [DFB]2 [C=EA][EG] | [A,CF]6[K:treble] z2 | [B,DG]2 G2 A2 A2 | B3 c A2 A>A | %11
 [DFB]2 AB c2 d2 | [Ee]2- [^F,E-e-]2 [EBe]2 c>c | [DFd]2 [Fcf]2 [GBe]2 [DAd]2 | %14
[M:7/8] [EGc]2 [^FAd]2 [DGB]3 |[M:1/4] B>B |[M:4/4] [FB]FGB B2 AB |[M:9/8] [B,DFB]8- [B,DFB] | %18
[M:1/4] F>F |[M:4/4] B2 F2 G2 D2 | E3 D C2 [A,CF]>[A,CF] | [B,FB]2 [B,EB]2 [B,DFB]2 [CFAc]2 | %22
 [DFBd]6[K:bass][K:treble] [DF]2 | [CFc]2 [CFc]2 [DFB]2 AG | A3 B [CFc]2 F>F | %25
 [DFG]2 [DFA]2 [DFB]2 [C=EA][EG] | [A,CF]6[K:treble] z2 | [B,DG]2 G2 A2 A2 | B3 c A2 A>A | %29
 [DFB]2 AB c2 d2 | [Ee]2- [^F,E-e-]2 [EBe]2 c>c | [DFd]2 [Fcf]2 [GBe]2 [DAd]2 | %32
[M:7/8] [EGc]2 [^FAd]2 [DGB]3 |[M:1/4] B>B |[M:4/4] [FB]FGB B2 AB | B2- [B,DB-]2 [B,EB]2 [B,D_A]2 | %36
 [B,EGB]4 [^FB]4 |[M:6/4] [B,DFB]12 |] %38
V:2
 z4 z2 [F,,F,]2 | [B,,B,]2 [F,,F,]2 [G,,G,]2 [D,,D,]2 | [E,,E,]3 [D,,D,] [C,,C,]2 [F,,F,]>[E,,E,] | %3
 [D,,D,]2 [G,,G,]2 [F,,F,]2 [F,,F,]2 | [B,,,B,,]2 F,,2 B,,2 [B,,B,]2 | %5
 [A,,A,]2 [A,,A,]2 [G,,G,]2 [C,,C,]2 | [F,,F,]3 [G,,G,] [A,,A,]2 [D,A,]2 | %7
 [B,,B,]2 [A,,A,]2 [G,,G,]2 z B, | F,,3 C,, .F,,,2 z z/ F/ | z2 [B,D]2 [CE]2 [CE]2 | %10
 z2[K:treble] C2 [CF]2[K:bass] [G,,F,]2 | z2[K:treble] [CF][DF][K:bass] [F,A,CF]2 [F,B,DF]2 | %12
 [F,C]2 ^F,,2 [G,,G,]2 [A,,A,]2 | [B,,B,]2 [A,,A,]2 [G,,G,]2 [F,,F,]2 | %14
[M:7/8] [E,,E,]2 [D,,D,]2 [G,,G,]3 |[M:1/4] [^F,,^F,]2 |[M:4/4] [F,,F,]F,G,B, z2 z B, | %17
[M:9/8] [B,,,B,,]8- [B,,,B,,] |[M:1/4] [F,,F,]2 |[M:4/4] [B,,B,]2 [F,,F,]2 [G,,G,]2 [D,,D,]2 | %20
 [E,,E,]3 [D,,D,] [C,,C,]2 [F,,F,]>[E,,E,] | [D,,D,]2 [G,,G,]2 [F,,F,]2 [F,,F,]2 | %22
 [B,,,B,,]2 F,,2 B,,2 [B,,B,]2 | [A,,A,]2 [A,,A,]2 [G,,G,]2 [C,,C,]2 | %24
 [F,,F,]3 [G,,G,] [A,,A,]2 [D,A,]2 | [B,,B,]2 [A,,A,]2 [G,,G,]2 z B, | F,,3 C,, .F,,,2 z z/ F/ | %27
 z2 [B,D]2 [CE]2 [CE]2 | z2[K:treble] C2 [CF]2[K:bass] [G,,F,]2 | %29
 z2[K:treble] [CF][DF][K:bass] [F,A,CF]2 [F,B,DF]2 | [F,C]2 ^F,,2 [G,,G,]2 [A,,A,]2 | %31
 [B,,B,]2 [A,,A,]2 [G,,G,]2 [F,,F,]2 |[M:7/8] [E,,E,]2 [D,,D,]2 [G,,G,]3 |[M:1/4] [^F,,^F,]2 | %34
[M:4/4] [F,,F,]F,G,B, z2 z B, | [B,,,B,,]2 [_A,,_A,]2 [G,,G,]2 [F,,F,]2 | z4 [CE]4 | %37
[M:6/4] [B,,,B,,]12 |] %38
V:3
 x8 | x8 | x8 | x8 | z2[K:bass] F,2 B,2[K:treble] d>d | z4 z2 [C=E]2 | [CF]4 z4 | x8 | %8
 F,3 C, .F,,2[K:treble] [F,A,CF]2 | x8 | [DF]2 =E2 z2 [CF]2 | x8 | A4 z2 [EF]2 | x8 |[M:7/8] x7 | %15
[M:1/4] [B,_DE]2 |[M:4/4] [B,D]2 z2 [CEc]4 |[M:9/8] x9 |[M:1/4] x2 |[M:4/4] x8 | x8 | x8 | %22
 z2[K:bass] F,2 B,2[K:treble] d>d | z4 z2 [C=E]2 | [CF]4 z4 | x8 | %26
 F,3 C, .F,,2[K:treble] [F,A,CF]2 | x8 | [DF]2 =E2 z2 [CF]2 | x8 | A4 z2 [EF]2 | x8 |[M:7/8] x7 | %33
[M:1/4] [B,_DE]2 |[M:4/4] [B,D]2 z2 [CEc]4 | [B,DF]2 z2 z4 | x8 |[M:6/4] x12 |] %38
V:4
 x8 | x8 | x8 | x8 | x8 | x8 | x8 | z4 z2 [C,,C,]2 | z4 z2 F,,2 | [F,,F,]8 | %10
 [F,,F,]6[K:treble][K:bass] z2 | [F,,F,]4[K:treble][K:bass] z4 | x8 | x8 |[M:7/8] x7 |[M:1/4] x2 | %16
[M:4/4] z4 [F,,F,]4 |[M:9/8] x9 |[M:1/4] x2 |[M:4/4] x8 | x8 | x8 | x8 | x8 | x8 | z4 z2 [C,,C,]2 | %26
 z4 z2 F,,2 | [F,,F,]8 | [F,,F,]6[K:treble][K:bass] z2 | [F,,F,]4[K:treble][K:bass] z4 | x8 | x8 | %32
[M:7/8] x7 |[M:1/4] x2 |[M:4/4] z4 [F,,F,]4 | x8 | [E,,E,]8 |[M:6/4] x12 |] %38

